src/assets/choira-white-O.svg

<svg width="32" height="28" viewBox="0 0 32 28" fill="none" xmlns="http://www.w3.org/2000/svg">
<g clip-path="url(#clip0)">
<path d="M3 14.4073C3 12.0649 3.55085 9.96046 4.65254 8.09387C5.79096 6.22728 7.33333 4.74498 9.27966 3.64699C11.2627 2.549 13.5395 2 16.1102 2C18.7175 2 20.976 2.549 22.8856 3.64699C24.8319 4.74498 26.3376 6.22728 27.4025 8.09387C28.4675 9.96046 29 12.0649 29 14.4073C29 16.7497 28.4675 18.8725 27.4025 20.7757C26.3376 22.6423 24.8319 24.1246 22.8856 25.2226C20.9393 26.3206 18.6624 26.8696 16.0551 26.8696C13.5212 26.8696 11.2627 26.3755 9.27966 25.3873C7.33333 24.3625 5.79096 22.9168 4.65254 21.0502C3.55085 19.1836 3 16.9693 3 14.4073ZM9.22458 14.4622C9.22458 15.853 9.51836 17.1157 10.1059 18.2503C10.6935 19.3483 11.4831 20.2267 12.4746 20.8855C13.5028 21.5077 14.6596 21.8188 15.9449 21.8188C17.9647 21.8188 19.5989 21.1234 20.8475 19.7326C22.0961 18.3052 22.7203 16.5484 22.7203 14.4622C22.7203 12.376 22.0961 10.6193 20.8475 9.19186C19.5989 7.76447 17.9647 7.05077 15.9449 7.05077C14.6596 7.05077 13.5028 7.39847 12.4746 8.09387C11.4831 8.75266 10.6935 9.64936 10.1059 10.784C9.51836 11.8819 9.22458 13.108 9.22458 14.4622Z" fill="white"/>
<path fill-rule="evenodd" clip-rule="evenodd" d="M27.7479 28.6014C28.5387 29.3656 28.4927 30.5632 27.6451 31.2763C23.0851 35.1127 18.2325 35.9899 14.0219 35.4047C9.92219 34.8349 6.55124 32.9025 4.64764 31.2597C3.8102 30.537 3.78108 29.3391 4.58258 28.584C5.38409 27.8289 6.71272 27.8026 7.55015 28.5253C8.95629 29.7388 11.5685 31.234 14.6614 31.6638C17.6436 32.0783 21.1933 31.5274 24.7814 28.5088C25.6289 27.7957 26.9571 27.8372 27.7479 28.6014Z" fill="white"/>
</g>
<defs>
<clipPath id="clip0">
<rect width="32" height="28" fill="white"/>
</clipPath>
</defs>
</svg>

<svg xmlns="http://www.w3.org/2000/svg" width="32" height="28" fill="none"><g fill="#fff" clip-path="url(#a)"><path d="M3 14.407c0-2.342.55-4.447 1.653-6.313C5.79 6.227 7.333 4.745 9.28 3.647 11.263 2.549 13.54 2 16.11 2c2.608 0 4.866.549 6.776 1.647 1.946 1.098 3.452 2.58 4.517 4.447C28.468 9.96 29 12.064 29 14.407c0 2.343-.532 4.465-1.598 6.369-1.064 1.866-2.57 3.349-4.516 4.447-1.947 1.098-4.224 1.647-6.83 1.647-2.535 0-4.793-.495-6.776-1.483a11.71 11.71 0 0 1-4.627-4.337C3.55 19.184 3 16.97 3 14.407Zm6.225.055c0 1.391.293 2.654.88 3.788.588 1.098 1.378 1.977 2.37 2.636 1.028.622 2.185.933 3.47.933 2.02 0 3.654-.696 4.902-2.086 1.25-1.428 1.873-3.185 1.873-5.27 0-2.087-.624-3.844-1.872-5.271-1.25-1.428-2.883-2.141-4.903-2.141-1.285 0-2.442.347-3.47 1.043-.992.659-1.781 1.555-2.37 2.69-.587 1.098-.88 2.324-.88 3.678Z"/><path fill-rule="evenodd" d="M27.748 28.601c.79.765.745 1.962-.103 2.675-4.56 3.837-9.412 4.714-13.623 4.129-4.1-.57-7.47-2.502-9.374-4.145-.838-.723-.867-1.92-.065-2.676.801-.755 2.13-.781 2.967-.059 1.406 1.214 4.019 2.709 7.111 3.139 2.983.414 6.532-.137 10.12-3.155.848-.713 2.176-.672 2.967.092Z" clip-rule="evenodd"/></g><defs><clipPath id="a"><path fill="#fff" d="M0 0h32v28H0z"/></clipPath></defs></svg>
